exports/number-of-natural-disaster-events_v3_850x600.svg

<svg xmlns="http://www.w3.org/2000/svg" version="1.1" style="background-color:#fff;-webkit-font-smoothing:antialiased" width="850" height="600" font-family="'Helvetica Neue',Helvetica,Arial,sans-serif" font-size="18" text-rendering="optimizeLegibility"><g class="ChartTab"><g class="HeaderView"><g opacity=".8" transform="matrix(.27 0 0 .27 778 15)"><a xmlns:xlink="http://www.w3.org/1999/xlink" xlink:href="https://ourworldindata.org" target="_blank"><g><path fill="#1B2543" d="M0 0h211.2v130.1H0z"/><path fill="#E63912" d="M0 112.2h211.2v17.9H0z"/><g><path fill="none" d="M1.2 12.3h210.2v99.2H1.2z"/><path fill="#FFF" d="M37.8 32.2c0 12.7-7.7 19.4-17.1 19.4-9.7 0-16.6-7.5-16.6-18.7 0-11.7 7.3-19.3 17.1-19.3 10.1.1 16.6 7.7 16.6 18.6zm-28.6.6c0 7.9 4.3 14.9 11.8 14.9 7.5 0 11.8-6.9 11.8-15.3 0-7.3-3.8-14.9-11.8-14.9-7.9 0-11.8 7.3-11.8 15.3zM62.7 43.8c0 2.7.1 5.1.2 7.2h-4.3l-.3-4.3h-.1c-1.3 2.1-4 4.9-8.8 4.9-4.2 0-9.1-2.3-9.1-11.6V24.6h4.8v14.6c0 5 1.5 8.4 5.9 8.4 3.2 0 5.5-2.2 6.3-4.4.3-.7.4-1.6.4-2.5V24.6h4.8v19.2zM67.3 32.8c0-3.1-.1-5.8-.2-8.2h4.2l.2 5.2h.2c1.2-3.5 4.1-5.8 7.3-5.8.5 0 .9.1 1.4.2v4.5c-.5-.1-1-.2-1.6-.2-3.4 0-5.8 2.6-6.5 6.2-.1.7-.2 1.4-.2 2.2V51h-4.8V32.8zM95.4 51L86 14.2h5l4.4 18.6c1.1 4.6 2.1 9.2 2.7 12.7h.1c.6-3.7 1.8-8 3-12.8l4.9-18.5h5l4.5 18.7c1 4.4 2 8.7 2.6 12.6h.1c.8-4 1.8-8.1 3-12.7l4.9-18.5h4.9L120.6 51h-5L111 31.9c-1.1-4.7-1.9-8.3-2.4-12h-.1c-.7 3.7-1.5 7.3-2.8 12L100.4 51h-5zM154.9 37.6c0 9.8-6.8 14-13.2 14-7.2 0-12.7-5.2-12.7-13.6 0-8.8 5.8-14 13.1-14 7.7 0 12.8 5.5 12.8 13.6zm-21 .3c0 5.8 3.3 10.1 8 10.1 4.6 0 8-4.3 8-10.3 0-4.5-2.2-10.1-7.9-10.1s-8.1 5.2-8.1 10.3zM158.2 32.8c0-3.1-.1-5.8-.2-8.2h4.2l.2 5.2h.2c1.2-3.5 4.1-5.8 7.3-5.8.5 0 .9.1 1.4.2v4.5c-.5-.1-1-.2-1.6-.2-3.4 0-5.8 2.6-6.5 6.2-.1.7-.2 1.4-.2 2.2V51h-4.8V32.8zM173.5 12.3h4.8V51h-4.8V12.3zM206.5 12.3v31.9c0 2.3.1 5 .2 6.8h-4.3l-.2-4.6h-.2c-1.5 2.9-4.7 5.2-9 5.2-6.4 0-11.3-5.4-11.3-13.4-.1-8.8 5.4-14.2 11.9-14.2 4 0 6.8 1.9 8 4h.1V12.3h4.8zm-4.8 23.1c0-.6-.1-1.4-.2-2a7 7 0 00-6.9-5.6c-5 0-7.9 4.4-7.9 10.2 0 5.3 2.6 9.8 7.8 9.8 3.2 0 6.2-2.1 7.1-5.7.2-.7.2-1.3.2-2.1v-4.6zM42.8 64c.1 1.6-1.1 2.9-3.1 2.9-1.7 0-2.9-1.3-2.9-2.9 0-1.7 1.3-3 3-3 1.9 0 3 1.3 3 3zm-5.4 33.8V71.4h4.8v26.4h-4.8zM47.5 78.6c0-2.7-.1-5-.2-7.1h4.3l.3 4.4h.1c1.3-2.5 4.4-5 8.8-5 3.7 0 9.4 2.2 9.4 11.2v15.8h-4.8V82.6c0-4.3-1.6-7.8-6.1-7.8-3.2 0-5.6 2.2-6.5 4.9-.2.6-.3 1.4-.3 2.2v15.9h-4.8V78.6zM84 61.6c2.9-.4 6.3-.8 10.1-.8 6.8 0 11.7 1.6 14.9 4.6 3.3 3 5.2 7.3 5.2 13.2 0 6-1.9 10.9-5.3 14.3-3.4 3.4-9.1 5.3-16.3 5.3-3.4 0-6.2-.2-8.6-.4V61.6zm4.8 32.5c1.2.2 3 .3 4.8.3 10.2 0 15.7-5.7 15.7-15.6.1-8.7-4.9-14.2-14.9-14.2-2.5 0-4.3.2-5.6.5v29zM132.1 97.8l-.4-3.3h-.2a9.79 9.79 0 01-8.1 3.9c-5.4 0-8.1-3.8-8.1-7.6 0-6.4 5.7-9.9 15.9-9.8v-.5c0-2.2-.6-6.1-6-6.1-2.5 0-5 .8-6.9 2l-1.1-3.2c2.2-1.4 5.4-2.3 8.7-2.3 8.1 0 10.1 5.5 10.1 10.8v9.9c0 2.3.1 4.5.4 6.3h-4.3zm-.7-13.4c-5.3-.1-11.2.8-11.2 5.9 0 3.1 2.1 4.6 4.5 4.6 3.4 0 5.6-2.2 6.4-4.4.2-.5.3-1 .3-1.5v-4.6zM146.6 63.9v7.6h6.9v3.7h-6.9v14.2c0 3.3.9 5.1 3.6 5.1 1.3 0 2.2-.2 2.8-.3l.2 3.6c-.9.4-2.4.7-4.3.7-2.2 0-4-.7-5.2-2-1.4-1.4-1.9-3.8-1.9-6.9V75.1h-4.1v-3.7h4.1v-6.3l4.8-1.2zM171.4 97.8l-.4-3.3h-.2a9.79 9.79 0 01-8.1 3.9c-5.4 0-8.1-3.8-8.1-7.6 0-6.4 5.7-9.9 15.9-9.8v-.5c0-2.2-.6-6.1-6-6.1-2.5 0-5 .8-6.9 2l-1.1-3.2c2.2-1.4 5.4-2.3 8.7-2.3 8.1 0 10.1 5.5 10.1 10.8v9.9c0 2.3.1 4.5.4 6.3h-4.3zm-.7-13.4c-5.3-.1-11.2.8-11.2 5.9 0 3.1 2.1 4.6 4.5 4.6 3.4 0 5.6-2.2 6.4-4.4.2-.5.3-1 .3-1.5v-4.6z"/></g></g></a></g><a href="https://ourworldindata.org/grapher/number-of-natural-disaster-events" target="_blank"><text font-size="25.2" x="15" y="35.2" fill="#555"><tspan x="15" y="35.16">Number of recorded natural disaster events, All natural disasters</tspan></text></a><text font-size="14.4" x="15" y="53.7" fill="#666"><tspan x="15" y="53.72">The number of global reported natural disaster events in any given year. This includes those from drought, floods,</tspan><tspan x="15" y="69.56">biological epidemics, extreme weather, extreme temperature, landslides, dry mass movements, extraterrestrial</tspan><tspan x="15" y="85.4">impacts, wildfires, volcanic activity and earthquakes.</tspan></text></g><g class="LineChart"><defs><clipPath id="a"><path d="M37.22 0h830v868.6h-830z"/></clipPath></defs><g class="AxisBoxView"><g class="HorizontalAxis" fill="#666" text-anchor="middle" font-size="16.2"><text x="47.2" y="541.9">1900</text><text x="154.8" y="541.9">1920</text><text x="262.4" y="541.9">1940</text><text x="369.9" y="541.9">1960</text><text x="477.5" y="541.9">1980</text><text x="585.1" y="541.9">2000</text><text x="681.9" y="541.9">2018</text></g><g class="VerticalAxis" fill="#666" dominant-baseline="middle" text-anchor="end" font-size="16.2"><text x="42.22" y="520.7">0</text><text x="42.22" y="425.1">100</text><text x="42.22" y="329.4">200</text><text x="42.22" y="233.8">300</text><text x="42.22" y="138.2">400</text></g><g class="AxisGridLines"><path stroke="#ccc" d="M47.22 520.7h634.66"/><path stroke="#ddd" stroke-dasharray="3,2" d="M47.22 425.1h634.66M47.22 329.4h634.66M47.22 233.8h634.66M47.22 138.2h634.66"/></g></g><g clip-path="url(#a)"><g class="HeightedLegend clickable"><g class="legendMark"><text font-size="13.5" x="686.9" y="255.1" fill="#3360a9"><tspan x="686.88" y="255.05">All natural disasters</tspan></text></g></g><g class="Lines"><g class="key-All-natural-disasters_0"><path stroke="#3360a9" stroke-linecap="round" d="M47 516l6 3 5-7 5 1 6 6 5-2 6-13 5 12 5 1 6-7 5-4 5 10 6-2 5 2 6-1 5-1 5 5 6-4 5-1 5 3 6-3 5 5 6-4 5-6 5 8 6-2 5-9 5 3 6-5 5 11 6-8 5 2 5 4 6-2 5 1 6-2h5l5 4h6l5-4 5-6 6 12 5-4 6-3h10l6-3 5 3 5-10 6 3 5-3 6-4 5 3 5-10 6 1 5 3 5-6 6 7 5 6 6-10 5-7 5 12h6l5-12 5-19 6-1 5-18 6 10 5-7 5 14 6-14 5 15 6-1 5 2 5-7 6 5 5-27 5-29 6 6 5-5 6-12 5-5 5-15 6-49 5 56 5-18 6 14 5-39 6-9 5 27 5-101 6 48 5 23 5-54 6 14 5-2 6 20 5-33 5-26 6-47 5-70 5 33 6-43 5 58 6 10 5-78 5 29 6-12 5 59 6 8 5-47 5 56 6-11 5 13 5 12 6-58 5 53 6 47 5-6" fill="none" stroke-width="1.5"/><g fill="#3360a9"><circle cx="47" cy="516" r="2"/><circle cx="53" cy="519" r="2"/><circle cx="58" cy="512" r="2"/><circle cx="63" cy="513" r="2"/><circle cx="69" cy="519" r="2"/><circle cx="74" cy="517" r="2"/><circle cx="80" cy="504" r="2"/><circle cx="85" cy="516" r="2"/><circle cx="90" cy="517" r="2"/><circle cx="96" cy="510" r="2"/><circle cx="101" cy="506" r="2"/><circle cx="106" cy="516" r="2"/><circle cx="112" cy="514" r="2"/><circle cx="117" cy="516" r="2"/><circle cx="123" cy="515" r="2"/><circle cx="128" cy="514" r="2"/><circle cx="133" cy="519" r="2"/><circle cx="139" cy="515" r="2"/><circle cx="144" cy="514" r="2"/><circle cx="149" cy="517" r="2"/><circle cx="155" cy="514" r="2"/><circle cx="160" cy="519" r="2"/><circle cx="166" cy="515" r="2"/><circle cx="171" cy="509" r="2"/><circle cx="176" cy="517" r="2"/><circle cx="182" cy="515" r="2"/><circle cx="187" cy="506" r="2"/><circle cx="192" cy="509" r="2"/><circle cx="198" cy="504" r="2"/><circle cx="203" cy="515" r="2"/><circle cx="209" cy="507" r="2"/><circle cx="214" cy="509" r="2"/><circle cx="219" cy="513" r="2"/><circle cx="225" cy="511" r="2"/><circle cx="230" cy="512" r="2"/><circle cx="236" cy="510" r="2"/><circle cx="241" cy="510" r="2"/><circle cx="246" cy="514" r="2"/><circle cx="252" cy="514" r="2"/><circle cx="257" cy="510" r="2"/><circle cx="262" cy="504" r="2"/><circle cx="268" cy="516" r="2"/><circle cx="273" cy="512" r="2"/><circle cx="279" cy="509" r="2"/><circle cx="284" cy="509" r="2"/><circle cx="289" cy="509" r="2"/><circle cx="295" cy="506" r="2"/><circle cx="300" cy="509" r="2"/><circle cx="305" cy="499" r="2"/><circle cx="311" cy="502" r="2"/><circle cx="316" cy="499" r="2"/><circle cx="322" cy="495" r="2"/><circle cx="327" cy="498" r="2"/><circle cx="332" cy="488" r="2"/><circle cx="338" cy="489" r="2"/><circle cx="343" cy="492" r="2"/><circle cx="348" cy="486" r="2"/><circle cx="354" cy="493" r="2"/><circle cx="359" cy="499" r="2"/><circle cx="365" cy="489" r="2"/><circle cx="370" cy="482" r="2"/><circle cx="375" cy="494" r="2"/><circle cx="381" cy="494" r="2"/><circle cx="386" cy="482" r="2"/><circle cx="391" cy="463" r="2"/><circle cx="397" cy="462" r="2"/><circle cx="402" cy="444" r="2"/><circle cx="408" cy="454" r="2"/><circle cx="413" cy="447" r="2"/><circle cx="418" cy="461" r="2"/><circle cx="424" cy="447" r="2"/><circle cx="429" cy="462" r="2"/><circle cx="435" cy="461" r="2"/><circle cx="440" cy="463" r="2"/><circle cx="445" cy="456" r="2"/><circle cx="451" cy="461" r="2"/><circle cx="456" cy="434" r="2"/><circle cx="461" cy="405" r="2"/><circle cx="467" cy="411" r="2"/><circle cx="472" cy="406" r="2"/><circle cx="478" cy="394" r="2"/><circle cx="483" cy="389" r="2"/><circle cx="488" cy="374" r="2"/><circle cx="494" cy="325" r="2"/><circle cx="499" cy="381" r="2"/><circle cx="504" cy="363" r="2"/><circle cx="510" cy="377" r="2"/><circle cx="515" cy="338" r="2"/><circle cx="521" cy="329" r="2"/><circle cx="526" cy="356" r="2"/><circle cx="531" cy="255" r="2"/><circle cx="537" cy="303" r="2"/><circle cx="542" cy="326" r="2"/><circle cx="547" cy="272" r="2"/><circle cx="553" cy="286" r="2"/><circle cx="558" cy="284" r="2"/><circle cx="564" cy="304" r="2"/><circle cx="569" cy="271" r="2"/><circle cx="574" cy="245" r="2"/><circle cx="580" cy="198" r="2"/><circle cx="585" cy="128" r="2"/><circle cx="590" cy="161" r="2"/><circle cx="596" cy="118" r="2"/><circle cx="601" cy="176" r="2"/><circle cx="607" cy="186" r="2"/><circle cx="612" cy="108" r="2"/><circle cx="617" cy="137" r="2"/><circle cx="623" cy="125" r="2"/><circle cx="628" cy="184" r="2"/><circle cx="634" cy="192" r="2"/><circle cx="639" cy="145" r="2"/><circle cx="644" cy="201" r="2"/><circle cx="650" cy="190" r="2"/><circle cx="655" cy="203" r="2"/><circle cx="660" cy="215" r="2"/><circle cx="666" cy="157" r="2"/><circle cx="671" cy="210" r="2"/><circle cx="677" cy="257" r="2"/><circle cx="682" cy="251" r="2"/></g></g></g></g></g><g class="SourcesFooter" fill="#777"><g class="clickable" fill="#777"><text font-size="12.6" x="15" y="567"><tspan x="15" y="566.98">Source: EMDAT (2017): OFDA/CRED International Disaster Database, Université catholique de Louvain – Brussels – Belgium</tspan></text></g><text font-size="12.6" x="15" y="582.5"><tspan x="15" y="582.48"><a target="_blank" href="https://ourworldindata.org/natural-disasters/" fill="#777">OurWorldInData.org/natural-disasters/</a> • <a class="cclogo" href="http://creativecommons.org/licenses/by-sa/4.0/deed.en_US" target="_blank" fill="#777">CC BY-SA</a></tspan></text></g></g></svg>

<svg xmlns="http://www.w3.org/2000/svg" version="1.1" style="font-family:&#x27;Helvetica Neue&#x27;, Helvetica, Arial, sans-serif;font-size:18px;background-color:white;text-rendering:optimizeLegibility;-webkit-font-smoothing:antialiased" width="850" height="600"><g class="ChartTab"><g class="HeaderView"><g opacity="0.8" transform="translate(778, 15) scale(0.27)"><a xmlns:xlink="http://www.w3.org/1999/xlink" xlink:href="https://ourworldindata.org" target="_blank"><g><rect x="0" y="0" fill="#1B2543" width="211.2" height="130.1"/><rect x="0" y="112.2" fill="#E63912" width="211.2" height="17.9"/><g><rect x="1.2" y="12.3" fill="none" width="210.2" height="99.2"/><path fill="#FFFFFF" d="M37.8,32.2c0,12.7-7.7,19.4-17.1,19.4c-9.7,0-16.6-7.5-16.6-18.7c0-11.7,7.3-19.3,17.1-19.3 C31.3,13.7,37.8,21.3,37.8,32.2z M9.2,32.8c0,7.9,4.3,14.9,11.8,14.9c7.5,0,11.8-6.9,11.8-15.3c0-7.3-3.8-14.9-11.8-14.9 C13.1,17.5,9.2,24.8,9.2,32.8z"/><path fill="#FFFFFF" d="M62.7,43.8c0,2.7,0.1,5.1,0.2,7.2h-4.3l-0.3-4.3h-0.1c-1.3,2.1-4,4.9-8.8,4.9c-4.2,0-9.1-2.3-9.1-11.6 V24.6h4.8v14.6c0,5,1.5,8.4,5.9,8.4c3.2,0,5.5-2.2,6.3-4.4c0.3-0.7,0.4-1.6,0.4-2.5V24.6h4.8V43.8z"/><path fill="#FFFFFF" d="M67.3,32.8c0-3.1-0.1-5.8-0.2-8.2h4.2l0.2,5.2h0.2c1.2-3.5,4.1-5.8,7.3-5.8c0.5,0,0.9,0.1,1.4,0.2v4.5 c-0.5-0.1-1-0.2-1.6-0.2c-3.4,0-5.8,2.6-6.5,6.2c-0.1,0.7-0.2,1.4-0.2,2.2V51h-4.8V32.8z"/><path fill="#FFFFFF" d="M95.4,51l-9.4-36.8h5l4.4,18.6c1.1,4.6,2.1,9.2,2.7,12.7h0.1c0.6-3.7,1.8-8,3-12.8l4.9-18.5h5l4.5,18.7 c1,4.4,2,8.7,2.6,12.6h0.1c0.8-4,1.8-8.1,3-12.7l4.9-18.5h4.9L120.6,51h-5L111,31.9c-1.1-4.7-1.9-8.3-2.4-12h-0.1 c-0.7,3.7-1.5,7.3-2.8,12L100.4,51H95.4z"/><path fill="#FFFFFF" d="M154.9,37.6c0,9.8-6.8,14-13.2,14c-7.2,0-12.7-5.2-12.7-13.6c0-8.8,5.8-14,13.1-14 C149.8,24,154.9,29.5,154.9,37.6z M133.9,37.9c0,5.8,3.3,10.1,8,10.1c4.6,0,8-4.3,8-10.3c0-4.5-2.2-10.1-7.9-10.1 C136.3,27.6,133.9,32.8,133.9,37.9z"/><path fill="#FFFFFF" d="M158.2,32.8c0-3.1-0.1-5.8-0.2-8.2h4.2l0.2,5.2h0.2c1.2-3.5,4.1-5.8,7.3-5.8c0.5,0,0.9,0.1,1.4,0.2v4.5 c-0.5-0.1-1-0.2-1.6-0.2c-3.4,0-5.8,2.6-6.5,6.2c-0.1,0.7-0.2,1.4-0.2,2.2V51h-4.8V32.8z"/><path fill="#FFFFFF" d="M173.5,12.3h4.8V51h-4.8V12.3z"/><path fill="#FFFFFF" d="M206.5,12.3v31.9c0,2.3,0.1,5,0.2,6.8h-4.3l-0.2-4.6H202c-1.5,2.9-4.7,5.2-9,5.2 c-6.4,0-11.3-5.4-11.3-13.4c-0.1-8.8,5.4-14.2,11.9-14.2c4,0,6.8,1.9,8,4h0.1V12.3H206.5z M201.7,35.4c0-0.6-0.1-1.4-0.2-2 c-0.7-3.1-3.3-5.6-6.9-5.6c-5,0-7.9,4.4-7.9,10.2c0,5.3,2.6,9.8,7.8,9.8c3.2,0,6.2-2.1,7.1-5.7c0.2-0.7,0.2-1.3,0.2-2.1V35.4z"/><path fill="#FFFFFF" d="M42.8,64c0.1,1.6-1.1,2.9-3.1,2.9c-1.7,0-2.9-1.3-2.9-2.9c0-1.7,1.3-3,3-3C41.7,61,42.8,62.3,42.8,64z M37.4,97.8V71.4h4.8v26.4H37.4z"/><path fill="#FFFFFF" d="M47.5,78.6c0-2.7-0.1-5-0.2-7.1h4.3l0.3,4.4h0.1c1.3-2.5,4.4-5,8.8-5c3.7,0,9.4,2.2,9.4,11.2v15.8h-4.8 V82.6c0-4.3-1.6-7.8-6.1-7.8c-3.2,0-5.6,2.2-6.5,4.9c-0.2,0.6-0.3,1.4-0.3,2.2v15.9h-4.8V78.6z"/><path fill="#FFFFFF" d="M84,61.6c2.9-0.4,6.3-0.8,10.1-0.8c6.8,0,11.7,1.6,14.9,4.6c3.3,3,5.2,7.3,5.2,13.2c0,6-1.9,10.9-5.3,14.3 c-3.4,3.4-9.1,5.3-16.3,5.3c-3.4,0-6.2-0.2-8.6-0.4V61.6z M88.8,94.1c1.2,0.2,3,0.3,4.8,0.3c10.2,0,15.7-5.7,15.7-15.6 c0.1-8.7-4.9-14.2-14.9-14.2c-2.5,0-4.3,0.2-5.6,0.5V94.1z"/><path fill="#FFFFFF" d="M132.1,97.8l-0.4-3.3h-0.2c-1.5,2.1-4.3,3.9-8.1,3.9c-5.4,0-8.1-3.8-8.1-7.6c0-6.4,5.7-9.9,15.9-9.8v-0.5 c0-2.2-0.6-6.1-6-6.1c-2.5,0-5,0.8-6.9,2l-1.1-3.2c2.2-1.4,5.4-2.3,8.7-2.3c8.1,0,10.1,5.5,10.1,10.8v9.9c0,2.3,0.1,4.5,0.4,6.3 H132.1z M131.4,84.4c-5.3-0.1-11.2,0.8-11.2,5.9c0,3.1,2.1,4.6,4.5,4.6c3.4,0,5.6-2.2,6.4-4.4c0.2-0.5,0.3-1,0.3-1.5V84.4z"/><path fill="#FFFFFF" d="M146.6,63.9v7.6h6.9v3.7h-6.9v14.2c0,3.3,0.9,5.1,3.6,5.1c1.3,0,2.2-0.2,2.8-0.3l0.2,3.6 c-0.9,0.4-2.4,0.7-4.3,0.7c-2.2,0-4-0.7-5.2-2c-1.4-1.4-1.9-3.8-1.9-6.9V75.1h-4.1v-3.7h4.1v-6.3L146.6,63.9z"/><path fill="#FFFFFF" d="M171.4,97.8l-0.4-3.3h-0.2c-1.5,2.1-4.3,3.9-8.1,3.9c-5.4,0-8.1-3.8-8.1-7.6c0-6.4,5.7-9.9,15.9-9.8v-0.5 c0-2.2-0.6-6.1-6-6.1c-2.5,0-5,0.8-6.9,2l-1.1-3.2c2.2-1.4,5.4-2.3,8.7-2.3c8.1,0,10.1,5.5,10.1,10.8v9.9c0,2.3,0.1,4.5,0.4,6.3 H171.4z M170.7,84.4c-5.3-0.1-11.2,0.8-11.2,5.9c0,3.1,2.1,4.6,4.5,4.6c3.4,0,5.6-2.2,6.4-4.4c0.2-0.5,0.3-1,0.3-1.5V84.4z"/></g></g></a></g><a href="https://ourworldindata.org/grapher/number-of-natural-disaster-events" target="_blank"><text font-size="25.20" x="15.0" y="35.2" fill="#555"><tspan x="15" y="35.160000000000004">Number of recorded natural disaster events, All natural disasters</tspan></text></a><text font-size="14.40" x="15.0" y="53.7" fill="#666"><tspan x="15" y="53.72">The number of global reported natural disaster events in any given year. This includes those from drought, floods,</tspan><tspan x="15" y="69.56">biological epidemics, extreme weather, extreme temperature, landslides, dry mass movements, extraterrestrial</tspan><tspan x="15" y="85.4">impacts, wildfires, volcanic activity and earthquakes.</tspan></text></g><g class="LineChart"><defs><clipPath id="boundsClip-1"><rect x="37.216" y="0" width="830" height="868.5999999999999"></rect></clipPath></defs><g class="AxisBoxView"><g class="HorizontalAxis"><text x="47.2" y="541.9" fill="#666" text-anchor="middle" font-size="16.2">1900</text><text x="154.8" y="541.9" fill="#666" text-anchor="middle" font-size="16.2">1920</text><text x="262.4" y="541.9" fill="#666" text-anchor="middle" font-size="16.2">1940</text><text x="369.9" y="541.9" fill="#666" text-anchor="middle" font-size="16.2">1960</text><text x="477.5" y="541.9" fill="#666" text-anchor="middle" font-size="16.2">1980</text><text x="585.1" y="541.9" fill="#666" text-anchor="middle" font-size="16.2">2000</text><text x="681.9" y="541.9" fill="#666" text-anchor="middle" font-size="16.2">2018</text></g><g class="VerticalAxis"><text x="42.22" y="520.7" fill="#666" dominant-baseline="middle" text-anchor="end" font-size="16.2">0</text><text x="42.22" y="425.1" fill="#666" dominant-baseline="middle" text-anchor="end" font-size="16.2">100</text><text x="42.22" y="329.4" fill="#666" dominant-baseline="middle" text-anchor="end" font-size="16.2">200</text><text x="42.22" y="233.8" fill="#666" dominant-baseline="middle" text-anchor="end" font-size="16.2">300</text><text x="42.22" y="138.2" fill="#666" dominant-baseline="middle" text-anchor="end" font-size="16.2">400</text></g><g class="AxisGridLines"><line x1="47.22" y1="520.7" x2="681.88" y2="520.7" stroke="#ccc"></line><line x1="47.22" y1="425.1" x2="681.88" y2="425.1" stroke="#ddd" stroke-dasharray="3,2"></line><line x1="47.22" y1="329.4" x2="681.88" y2="329.4" stroke="#ddd" stroke-dasharray="3,2"></line><line x1="47.22" y1="233.8" x2="681.88" y2="233.8" stroke="#ddd" stroke-dasharray="3,2"></line><line x1="47.22" y1="138.2" x2="681.88" y2="138.2" stroke="#ddd" stroke-dasharray="3,2"></line></g></g><g clip-path="url(#boundsClip-1)"><g class="HeightedLegend clickable"><g class="legendMark"><rect x="681.875" y="244.25" width="153.125" height="13.5" fill="#fff" opacity="0"></rect><text font-size="13.50" x="686.9" y="255.1" fill="#3360a9"><tspan x="686.875" y="255.05">All natural disasters</tspan></text></g></g><g class="Lines"><rect x="47" y="108" width="635" height="413" fill="rgba(255,255,255,0)" opacity="0"></rect><g class="key-All-natural-disasters_0"><path stroke="#3360a9" stroke-linecap="round" d="M47 516L53 519L58 512L63 513L69 519L74 517L80 504L85 516L90 517L96 510L101 506L106 516L112 514L117 516L123 515L128 514L133 519L139 515L144 514L149 517L155 514L160 519L166 515L171 509L176 517L182 515L187 506L192 509L198 504L203 515L209 507L214 509L219 513L225 511L230 512L236 510L241 510L246 514L252 514L257 510L262 504L268 516L273 512L279 509L284 509L289 509L295 506L300 509L305 499L311 502L316 499L322 495L327 498L332 488L338 489L343 492L348 486L354 493L359 499L365 489L370 482L375 494L381 494L386 482L391 463L397 462L402 444L408 454L413 447L418 461L424 447L429 462L435 461L440 463L445 456L451 461L456 434L461 405L467 411L472 406L478 394L483 389L488 374L494 325L499 381L504 363L510 377L515 338L521 329L526 356L531 255L537 303L542 326L547 272L553 286L558 284L564 304L569 271L574 245L580 198L585 128L590 161L596 118L601 176L607 186L612 108L617 137L623 125L628 184L634 192L639 145L644 201L650 190L655 203L660 215L666 157L671 210L677 257L682 251" fill="none" stroke-width="1.5"></path><g fill="#3360a9"><circle cx="47" cy="516" r="2"></circle><circle cx="53" cy="519" r="2"></circle><circle cx="58" cy="512" r="2"></circle><circle cx="63" cy="513" r="2"></circle><circle cx="69" cy="519" r="2"></circle><circle cx="74" cy="517" r="2"></circle><circle cx="80" cy="504" r="2"></circle><circle cx="85" cy="516" r="2"></circle><circle cx="90" cy="517" r="2"></circle><circle cx="96" cy="510" r="2"></circle><circle cx="101" cy="506" r="2"></circle><circle cx="106" cy="516" r="2"></circle><circle cx="112" cy="514" r="2"></circle><circle cx="117" cy="516" r="2"></circle><circle cx="123" cy="515" r="2"></circle><circle cx="128" cy="514" r="2"></circle><circle cx="133" cy="519" r="2"></circle><circle cx="139" cy="515" r="2"></circle><circle cx="144" cy="514" r="2"></circle><circle cx="149" cy="517" r="2"></circle><circle cx="155" cy="514" r="2"></circle><circle cx="160" cy="519" r="2"></circle><circle cx="166" cy="515" r="2"></circle><circle cx="171" cy="509" r="2"></circle><circle cx="176" cy="517" r="2"></circle><circle cx="182" cy="515" r="2"></circle><circle cx="187" cy="506" r="2"></circle><circle cx="192" cy="509" r="2"></circle><circle cx="198" cy="504" r="2"></circle><circle cx="203" cy="515" r="2"></circle><circle cx="209" cy="507" r="2"></circle><circle cx="214" cy="509" r="2"></circle><circle cx="219" cy="513" r="2"></circle><circle cx="225" cy="511" r="2"></circle><circle cx="230" cy="512" r="2"></circle><circle cx="236" cy="510" r="2"></circle><circle cx="241" cy="510" r="2"></circle><circle cx="246" cy="514" r="2"></circle><circle cx="252" cy="514" r="2"></circle><circle cx="257" cy="510" r="2"></circle><circle cx="262" cy="504" r="2"></circle><circle cx="268" cy="516" r="2"></circle><circle cx="273" cy="512" r="2"></circle><circle cx="279" cy="509" r="2"></circle><circle cx="284" cy="509" r="2"></circle><circle cx="289" cy="509" r="2"></circle><circle cx="295" cy="506" r="2"></circle><circle cx="300" cy="509" r="2"></circle><circle cx="305" cy="499" r="2"></circle><circle cx="311" cy="502" r="2"></circle><circle cx="316" cy="499" r="2"></circle><circle cx="322" cy="495" r="2"></circle><circle cx="327" cy="498" r="2"></circle><circle cx="332" cy="488" r="2"></circle><circle cx="338" cy="489" r="2"></circle><circle cx="343" cy="492" r="2"></circle><circle cx="348" cy="486" r="2"></circle><circle cx="354" cy="493" r="2"></circle><circle cx="359" cy="499" r="2"></circle><circle cx="365" cy="489" r="2"></circle><circle cx="370" cy="482" r="2"></circle><circle cx="375" cy="494" r="2"></circle><circle cx="381" cy="494" r="2"></circle><circle cx="386" cy="482" r="2"></circle><circle cx="391" cy="463" r="2"></circle><circle cx="397" cy="462" r="2"></circle><circle cx="402" cy="444" r="2"></circle><circle cx="408" cy="454" r="2"></circle><circle cx="413" cy="447" r="2"></circle><circle cx="418" cy="461" r="2"></circle><circle cx="424" cy="447" r="2"></circle><circle cx="429" cy="462" r="2"></circle><circle cx="435" cy="461" r="2"></circle><circle cx="440" cy="463" r="2"></circle><circle cx="445" cy="456" r="2"></circle><circle cx="451" cy="461" r="2"></circle><circle cx="456" cy="434" r="2"></circle><circle cx="461" cy="405" r="2"></circle><circle cx="467" cy="411" r="2"></circle><circle cx="472" cy="406" r="2"></circle><circle cx="478" cy="394" r="2"></circle><circle cx="483" cy="389" r="2"></circle><circle cx="488" cy="374" r="2"></circle><circle cx="494" cy="325" r="2"></circle><circle cx="499" cy="381" r="2"></circle><circle cx="504" cy="363" r="2"></circle><circle cx="510" cy="377" r="2"></circle><circle cx="515" cy="338" r="2"></circle><circle cx="521" cy="329" r="2"></circle><circle cx="526" cy="356" r="2"></circle><circle cx="531" cy="255" r="2"></circle><circle cx="537" cy="303" r="2"></circle><circle cx="542" cy="326" r="2"></circle><circle cx="547" cy="272" r="2"></circle><circle cx="553" cy="286" r="2"></circle><circle cx="558" cy="284" r="2"></circle><circle cx="564" cy="304" r="2"></circle><circle cx="569" cy="271" r="2"></circle><circle cx="574" cy="245" r="2"></circle><circle cx="580" cy="198" r="2"></circle><circle cx="585" cy="128" r="2"></circle><circle cx="590" cy="161" r="2"></circle><circle cx="596" cy="118" r="2"></circle><circle cx="601" cy="176" r="2"></circle><circle cx="607" cy="186" r="2"></circle><circle cx="612" cy="108" r="2"></circle><circle cx="617" cy="137" r="2"></circle><circle cx="623" cy="125" r="2"></circle><circle cx="628" cy="184" r="2"></circle><circle cx="634" cy="192" r="2"></circle><circle cx="639" cy="145" r="2"></circle><circle cx="644" cy="201" r="2"></circle><circle cx="650" cy="190" r="2"></circle><circle cx="655" cy="203" r="2"></circle><circle cx="660" cy="215" r="2"></circle><circle cx="666" cy="157" r="2"></circle><circle cx="671" cy="210" r="2"></circle><circle cx="677" cy="257" r="2"></circle><circle cx="682" cy="251" r="2"></circle></g></g></g></g></g><g class="SourcesFooter" style="fill:#777"><g class="clickable" style="fill:#777"><text font-size="12.60" x="15.0" y="567.0"><tspan x="15" y="566.98">Source: 	EMDAT (2017): OFDA/CRED International Disaster Database, Université catholique de Louvain – Brussels – Belgium</tspan></text></g><text font-size="12.60" x="15.0" y="582.5"><tspan x="15" y="582.48"><a target='_blank' style='fill: #777;' href='https://ourworldindata.org/natural-disasters/'>OurWorldInData.org/natural-disasters/</a> • <a style="fill: #777;" class="cclogo" href="http://creativecommons.org/licenses/by-sa/4.0/deed.en_US" target="_blank">CC BY-SA</a></tspan></text></g></g></svg>
